packages/dnb-ui-lib/assets/icons/bank_medium.svg

<svg width="24" height="24" viewBox="0 0 24 24" fill="none" xmlns="http://www.w3.org/2000/svg">
<path d="M1.5 23.2499H22.5M21 11.2499V20.2499H18V11.2499M13.5 11.2499V20.2499H10.5V11.2499M6 11.2499V20.2499H3V11.2499M22.5 8.2499H1.5L11.189 2.4879C11.4309 2.33242 11.7124 2.24976 12 2.24976C12.2876 2.24976 12.5691 2.33242 12.811 2.4879L22.5 8.2499Z" stroke="black" stroke-width="1.5" stroke-linecap="round" stroke-linejoin="round"/>
</svg>

<svg width="24" height="24" viewBox="0 0 24 24" fill="none" xmlns="http://www.w3.org/2000/svg"><path d="M1.5 23.25h21m-1.5-12v9h-3v-9m-4.5 0v9h-3v-9m-4.5 0v9H3v-9m19.5-3h-21l9.689-5.762a1.5 1.5 0 011.622 0L22.5 8.25z" stroke="#000" stroke-width="1.5" stroke-linecap="round" stroke-linejoin="round"/></svg>
